assets/illustrations/multisize/32/vsdx.svg

<svg id="477502ac-b1e9-4eea-876c-38c69b20e914" data-name="ICONS" xmlns="http://www.w3.org/2000/svg" xmlns:xlink="http://www.w3.org/1999/xlink" viewBox="0 0 32 32"><defs><linearGradient id="1619e8ec-30a9-4a90-834e-970dcaf1af8d" x1="5.0842" y1="3.60755" x2="27.96138" y2="30.87151" gradientUnits="userSpaceOnUse"><stop offset="0" stop-color="#fff" stop-opacity="0"/><stop offset="0.86247" stop-color="#5e5e5e" stop-opacity="0.06315"/><stop offset="1" stop-opacity="0.1"/></linearGradient><linearGradient id="2e83873b-fa76-4a89-928c-e898ed2757b5" x1="22.14788" y1="9.10212" x2="26.11437" y2="5.13563" gradientUnits="userSpaceOnUse"><stop offset="0" stop-color="#fff" stop-opacity="0"/><stop offset="0.44604" stop-color="#fff" stop-opacity="0.00799"/><stop offset="0.63551" stop-color="#fff" stop-opacity="0.03616"/><stop offset="0.77636" stop-color="#fff" stop-opacity="0.08493"/><stop offset="0.8924" stop-color="#fff" stop-opacity="0.15385"/><stop offset="0.99328" stop-color="#fff" stop-opacity="0.24291"/><stop offset="1" stop-color="#fff" stop-opacity="0.25"/></linearGradient><linearGradient id="26e5c7cb-b3da-468b-afea-7ae772e6f54b" x1="9.5" y1="26.4375" x2="9.5" y2="9.52504" gradientUnits="userSpaceOnUse"><stop offset="0" stop-color="#fff" stop-opacity="0"/><stop offset="0.52587" stop-color="#fff" stop-opacity="0.00735"/><stop offset="0.71529" stop-color="#fff" stop-opacity="0.03396"/><stop offset="0.8503" stop-color="#fff" stop-opacity="0.0803"/><stop offset="0.95875" stop-color="#fff" stop-opacity="0.14595"/><stop offset="1" stop-color="#fff" stop-opacity="0.18"/></linearGradient><linearGradient id="881c5f03-67f8-464c-a4c6-a469c8b81586" x1="11.28178" y1="29.35196" x2="11.61734" y2="26.21204" gradientUnits="userSpaceOnUse"><stop offset="0" stop-color="#828282" stop-opacity="0"/><stop offset="0.86247" stop-color="#303030" stop-opacity="0.12631"/><stop offset="1" stop-opacity="0.2"/></linearGradient><linearGradient id="94147e78-ba9c-4b7b-807b-08eb6d2a7996" x1="25" y1="10.9375" x2="25" y2="9.05834" gradientUnits="userSpaceOnUse"><stop offset="0" stop-color="#828282" stop-opacity="0"/><stop offset="0.86247" stop-color="#303030" stop-opacity="0.06315"/><stop offset="1" stop-opacity="0.1"/></linearGradient></defs><title>FileTypeIcons_Master_All_NEW</title><polygon points="28 29 8 29 8 3 23 3 28 8 28 29" fill="#fff"/><path d="M23,2H7V30H29V8Zm0,1.5L27.5,8H23ZM28,29H8V3H22V9h6Z" fill="#949494"/><path d="M24,21.05029V18H22V15.94971a2.5,2.5,0,1,0-1,0V18H19V16H14v5h5V19h4v2.05029a2.5,2.5,0,1,0,1,0ZM20,13.5A1.5,1.5,0,1,1,21.5,15,1.50164,1.50164,0,0,1,20,13.5ZM18,20H15V17h3v3Zm5.5,5A1.5,1.5,0,1,1,25,23.5,1.50164,1.50164,0,0,1,23.5,25Z" fill="#c8c8c8"/><polygon points="3 11 16 9 16 27 3 25 3 11" fill="#3955a3"/><path d="M13,14l-2.56528,8H8.53412L6,14H7.80712l1.55267,5.56764a4.24924,4.24924,0,0,1,.1506.79777h.03115a4.80352,4.80352,0,0,1,.161-.82008L11.24481,14Z" fill="#fff"/><path d="M25.5,11a.5.5,0,1,0,.5.5.49971.49971,0,0,0-.5-.5Z" fill="#c8c8c8"/><path d="M25.5,14a.5.5,0,1,0,.5.5.49971.49971,0,0,0-.5-.5Z" fill="#c8c8c8"/><path d="M25.5,17a.5.5,0,1,0,.5.5.49971.49971,0,0,0-.5-.5Z" fill="#c8c8c8"/><path d="M18.5,25a.5.5,0,1,0,.5.5.49971.49971,0,0,0-.5-.5Z" fill="#c8c8c8"/><path d="M10.5,5a.5.5,0,1,0,.5.5.49971.49971,0,0,0-.5-.5Z" fill="#c8c8c8"/><path d="M13.5,5a.5.5,0,1,0,.5.5.49971.49971,0,0,0-.5-.5Z" fill="#c8c8c8"/><path d="M13.5,8a.5.5,0,1,0,.5.5.49971.49971,0,0,0-.5-.5Z" fill="#c8c8c8"/><path d="M16.5,5a.5.5,0,1,0,.5.5.49971.49971,0,0,0-.5-.5Z" fill="#c8c8c8"/><path d="M19.5,5a.5.5,0,1,0,.5.5.49971.49971,0,0,0-.5-.5Z" fill="#c8c8c8"/><path d="M29,8,23,2H7V30H29Z" fill="url(#1619e8ec-30a9-4a90-834e-970dcaf1af8d)"/><polygon points="7 2 7 3 22 3 22 9 28 9 28 24.5 29 24.5 29 8 23 2 7 2" fill="url(#2e83873b-fa76-4a89-928c-e898ed2757b5)"/><polygon points="16 9 3 11 3 25 16 27 16 9" fill="url(#26e5c7cb-b3da-468b-afea-7ae772e6f54b)"/><polygon points="16 29 7 29 7 25.62 16 27 16 29" fill="url(#881c5f03-67f8-464c-a4c6-a469c8b81586)"/><rect x="22" y="9" width="6" height="2" fill="url(#94147e78-ba9c-4b7b-807b-08eb6d2a7996)"/></svg>

<?xml version="1.0" encoding="utf-8"?>
<!-- Generator: Adobe Illustrator 21.1.0, SVG Export Plug-In . SVG Version: 6.00 Build 0)  -->
<svg version="1.1" xmlns="http://www.w3.org/2000/svg" xmlns:xlink="http://www.w3.org/1999/xlink" x="0px" y="0px"
	 viewBox="0 0 32 32" enable-background="new 0 0 32 32" xml:space="preserve">
<g id="TEMPLATE" display="none">
	<g display="inline">
		<path fill="#D0D0D0" d="M32,0v32H0V0H32 M33-1h-1H0h-1v1v32v1h1h32h1v-1V0V-1L33-1z"/>
	</g>
	<g display="inline" opacity="0.1">
		<path fill="#FF3A6D" d="M30,2v28H2V2H30 M32,0H0v32h32V0L32,0z"/>
	</g>
</g>
<g id="ICONS">
	<g>
		<polygon fill="#FFFFFF" points="28,29 8,29 8,3 23,3 28,8 		"/>
		<path fill="#949494" d="M23,2H7v28h22V8L23,2z M23,3.5L27.5,8H23V3.5z M28,29H8V3h14v6h6V29z"/>
	</g>
	<path fill="#C8C8C8" d="M24,21.0503V19v-1h-1h-1v-2.0503c1.1411-0.2319,2-1.2402,2-2.4497c0-1.3809-1.1191-2.5-2.5-2.5
		S19,12.1191,19,13.5c0,1.2095,0.8589,2.2178,2,2.4497V18h-2v-2h-5v5h5v-2h4v2.0503c-1.1411,0.2319-2,1.2402-2,2.4497
		c0,1.3809,1.1191,2.5,2.5,2.5s2.5-1.1191,2.5-2.5C26,22.2905,25.1411,21.2822,24,21.0503z M20,13.5c0-0.8271,0.6729-1.5,1.5-1.5
		s1.5,0.6729,1.5,1.5S22.3271,15,21.5,15S20,14.3271,20,13.5z M18,20h-3v-3h3v1v1V20z M23.5,25c-0.8271,0-1.5-0.6729-1.5-1.5
		s0.6729-1.5,1.5-1.5s1.5,0.6729,1.5,1.5S24.3271,25,23.5,25z"/>
	<polygon fill="#3955A3" points="3,11 16,9 16,27 3,25 	"/>
	<g>
		<path fill="#FFFFFF" d="M13,14l-2.5653,8H8.5341L6,14h1.8071l1.5527,5.5676c0.0831,0.3013,0.1333,0.5672,0.1506,0.7978h0.0312
			c0.0242-0.2492,0.0779-0.5225,0.161-0.8201L11.2448,14H13z"/>
	</g>
	<g>
		<path fill="#C8C8C8" d="M25.5,11c-0.2764,0-0.5,0.2236-0.5,0.5s0.2236,0.5,0.5,0.5s0.5-0.2236,0.5-0.5S25.7764,11,25.5,11L25.5,11
			z"/>
	</g>
	<g>
		<path fill="#C8C8C8" d="M25.5,14c-0.2764,0-0.5,0.2236-0.5,0.5s0.2236,0.5,0.5,0.5s0.5-0.2236,0.5-0.5S25.7764,14,25.5,14L25.5,14
			z"/>
	</g>
	<g>
		<path fill="#C8C8C8" d="M25.5,17c-0.2764,0-0.5,0.2236-0.5,0.5s0.2236,0.5,0.5,0.5s0.5-0.2236,0.5-0.5S25.7764,17,25.5,17L25.5,17
			z"/>
	</g>
	<g>
		<path fill="#C8C8C8" d="M18.5,25c-0.2764,0-0.5,0.2236-0.5,0.5s0.2236,0.5,0.5,0.5s0.5-0.2236,0.5-0.5S18.7764,25,18.5,25L18.5,25
			z"/>
	</g>
	<g>
		<path fill="#C8C8C8" d="M10.5,5C10.2236,5,10,5.2236,10,5.5S10.2236,6,10.5,6S11,5.7764,11,5.5S10.7764,5,10.5,5L10.5,5z"/>
	</g>
	<g>
		<path fill="#C8C8C8" d="M13.5,5C13.2236,5,13,5.2236,13,5.5S13.2236,6,13.5,6S14,5.7764,14,5.5S13.7764,5,13.5,5L13.5,5z"/>
	</g>
	<g>
		<path fill="#C8C8C8" d="M13.5,8C13.2236,8,13,8.2236,13,8.5S13.2236,9,13.5,9S14,8.7764,14,8.5S13.7764,8,13.5,8L13.5,8z"/>
	</g>
	<g>
		<path fill="#C8C8C8" d="M16.5,5C16.2236,5,16,5.2236,16,5.5S16.2236,6,16.5,6S17,5.7764,17,5.5S16.7764,5,16.5,5L16.5,5z"/>
	</g>
	<g>
		<path fill="#C8C8C8" d="M19.5,5C19.2236,5,19,5.2236,19,5.5S19.2236,6,19.5,6S20,5.7764,20,5.5S19.7764,5,19.5,5L19.5,5z"/>
	</g>
	<linearGradient id="SVGID_1_" gradientUnits="userSpaceOnUse" x1="5.0842" y1="3.6075" x2="27.9614" y2="30.8715">
		<stop  offset="0" style="stop-color:#FFFFFF;stop-opacity:0"/>
		<stop  offset="0.2264" style="stop-color:#FCFCFC;stop-opacity:0.0226"/>
		<stop  offset="0.3626" style="stop-color:#F4F4F4;stop-opacity:0.0363"/>
		<stop  offset="0.475" style="stop-color:#E6E6E6;stop-opacity:0.0475"/>
		<stop  offset="0.5744" style="stop-color:#D1D1D1;stop-opacity:0.0574"/>
		<stop  offset="0.6652" style="stop-color:#B7B7B7;stop-opacity:0.0665"/>
		<stop  offset="0.7498" style="stop-color:#979797;stop-opacity:0.075"/>
		<stop  offset="0.8297" style="stop-color:#707070;stop-opacity:0.083"/>
		<stop  offset="0.9057" style="stop-color:#444444;stop-opacity:0.0906"/>
		<stop  offset="0.9761" style="stop-color:#121212;stop-opacity:0.0976"/>
		<stop  offset="1" style="stop-color:#000000;stop-opacity:0.1"/>
	</linearGradient>
	<path fill="url(#SVGID_1_)" d="M29,8l-6-6H7v28h22V8z"/>
	<linearGradient id="SVGID_2_" gradientUnits="userSpaceOnUse" x1="22.1479" y1="9.1021" x2="26.1144" y2="5.1356">
		<stop  offset="0" style="stop-color:#FFFFFF;stop-opacity:0"/>
		<stop  offset="0.8537" style="stop-color:#FFFFFF;stop-opacity:0.2134"/>
		<stop  offset="1" style="stop-color:#FFFFFF;stop-opacity:0.25"/>
	</linearGradient>
	<polygon fill="url(#SVGID_2_)" points="7,2 7,3 22,3 22,9 28,9 28,24.5 29,24.5 29,8 23,2 	"/>
	<linearGradient id="SVGID_3_" gradientUnits="userSpaceOnUse" x1="9.5" y1="26.4375" x2="9.5" y2="9.525">
		<stop  offset="0" style="stop-color:#FFFFFF;stop-opacity:0"/>
		<stop  offset="0.8587" style="stop-color:#FFFFFF;stop-opacity:0.1546"/>
		<stop  offset="1" style="stop-color:#FFFFFF;stop-opacity:0.18"/>
	</linearGradient>
	<polygon fill="url(#SVGID_3_)" points="16,9 3,11 3,25 16,27 	"/>
	<linearGradient id="SVGID_4_" gradientUnits="userSpaceOnUse" x1="11.2818" y1="29.352" x2="11.6173" y2="26.212">
		<stop  offset="0" style="stop-color:#828282;stop-opacity:0"/>
		<stop  offset="0.2812" style="stop-color:#7F7F7F;stop-opacity:0.0562"/>
		<stop  offset="0.4503" style="stop-color:#777777;stop-opacity:0.0901"/>
		<stop  offset="0.5899" style="stop-color:#696969;stop-opacity:0.118"/>
		<stop  offset="0.7133" style="stop-color:#545454;stop-opacity:0.1427"/>
		<stop  offset="0.8259" style="stop-color:#3A3A3A;stop-opacity:0.1652"/>
		<stop  offset="0.9294" style="stop-color:#1A1A1A;stop-opacity:0.1859"/>
		<stop  offset="1" style="stop-color:#000000;stop-opacity:0.2"/>
	</linearGradient>
	<polygon fill="url(#SVGID_4_)" points="16,29 7,29 7,25.62 16,27 	"/>
	<linearGradient id="SVGID_5_" gradientUnits="userSpaceOnUse" x1="25" y1="10.9375" x2="25" y2="9.0583">
		<stop  offset="0" style="stop-color:#828282;stop-opacity:0"/>
		<stop  offset="0.2812" style="stop-color:#7F7F7F;stop-opacity:0.0281"/>
		<stop  offset="0.4503" style="stop-color:#777777;stop-opacity:0.045"/>
		<stop  offset="0.5899" style="stop-color:#696969;stop-opacity:0.059"/>
		<stop  offset="0.7133" style="stop-color:#545454;stop-opacity:0.0713"/>
		<stop  offset="0.8259" style="stop-color:#3A3A3A;stop-opacity:0.0826"/>
		<stop  offset="0.9294" style="stop-color:#1A1A1A;stop-opacity:0.0929"/>
		<stop  offset="1" style="stop-color:#000000;stop-opacity:0.1"/>
	</linearGradient>
	<rect x="22" y="9" fill="url(#SVGID_5_)" width="6" height="2"/>
</g>
</svg>
